!!!!SEGMENT: pl-wn--mus-iii-105-719-1--006_zelenski-wladyslaw--25-preludyi-op-38-6-andante-non-troppo-lento.krn
!!!cenid: 18xx:3739
!!!COM: Żeleński, Władysław
!!!COM-rismID: pe41024455
!!!CDT: 1837/07/06-1921/01/23
!!!CNT: Polish
!!!GTL: 25 preludyi op. 38
!!!OTL: 6. Andante non troppo lento
!!!OMV: 006
!!!PDT: 1881
!!!AGN:
!!!SMS-siglum: PL-Wn
!!!SMS-shelfmark: Mus.III.105.719/1
!!!SMS-shelfwork: 001-006 G
!!!SMS-variant:
!!!SMS-altvar:
!!!NIFC-rismSourceID:
!!!NIFC-rismChildID:
!!!NIFC-islandoraID: none
!!!URL-pdf-islandora:
!!!URL-scan: https://polona.pl/item/25-preludyi-2-3-i-4-glosowych-na-organ-lub-fisharmonike-do-uzytku-organistow-i,ODE1NjEwMzc/2 @EN{Scan on Polona} @PL{Skany w portalu Polona}
!!!ONB-nifc:
!!!AIN: 2 organ
!!!key: d
**kern	**fing	**dynam	**kern	**fing	**dynam
*part2	*part2	*part2	*part1	*part1	*part1
*staff2	*	*	*staff1	*	*
*I"Organ	*	*	*I"Organ	*	*
*I'org	*	*	*I'org	*	*
*ICklav	*	*	*ICklav	*	*
*Iorgan	*	*	*Iorgan	*	*
*clefF4	*	*	*clefG2	*	*
*k[b-]	*	*	*k[b-]	*	*
*d:	*	*	*d:	*	*
*M3/4	*	*	*M3/4	*	*
=1	=1	=1	=1	=1	=1
*xywh-#13:530,348,5007,1137	*	*	*xywh-#13:530,348,5007,1137	*	*
!	!	!	!LO:TX:a:B:t=6. Andante non troppo lento.	!	!
4r	.	.	2.r	.	p
(4f\	1	.	.	.	.
4e\	.	.	.	.	.
=2	=2	=2	=2	=2	=2
[2.d\	.	.	4r	.	.
.	.	.	(4b-\	3	.
.	.	.	4a/	.	.
=3	=3	=3	=3	=3	=3
4d\]	.	.	[2.g/	.	.
4e\	1	.	.	.	.
4d\	.	.	.	.	.
=4	=4	=4	=4	=4	=4
[2.c#X\	.	.	4g/]	.	.
.	.	.	4a/	3	.
.	.	.	4g/	.	.
=5	=5	=5	=5	=5	=5
4c#\]	.	.	2f/	.	.
4d\	1	.	.	.	.
4cn\	.	<	[4a/	4	.
=6	=6	=6	=6	=6	=6
4.B-\	.	.	4a/]	.	.
.	.	.	4g/	.	.
8c\	.	.	.	.	.
8B-\L	.	.	4d/	.	.
8A\J	.	.	.	.	.
=7	=7	=7	=7	=7	=7
4B-\	3	.	4.g/	4	.
4G\	5	.	.	.	.
.	.	.	8f/	.	.
[4B-\	2	[	8e/L	.	.
.	.	.	8d/J	.	.
=8	=8	=8	=8	=8	=8
4B-\]	.	.	2.c#X/	2	.
8A\L	1	>	.	.	.
8G\	.	.	.	.	.
8F\	.	.	.	.	.
8E\J	.	]]	.	.	.
=9	=9	=9	=9	=9	=9
4D\)	.	.	4d/)	1	.
4r	.	.	(4f/	3	p
4r	.	.	4e/	.	.
=10	=10	=10	=10	=10	=10
4r	.	.	[2.d/	.	.
(4B-\	2	.	.	.	.
4A\	.	.	.	.	.
=11	=11	=11	=11	=11	=11
[2.G\	.	.	4d/]	.	.
.	.	.	4e/	3	.
.	.	.	4d/	.	.
=12	=12	=12	=12	=12	=12
4G\]	.	.	2c/	.	.
4A\	1	.	.	.	.
4G\)	.	<	[4cc\	5	.
!!LO:LB:g=original	!	!	!	!	!
=13	=13	=13	=13	=13	=13
*xywh-#13:345,1485,5255,807	*	*	*xywh-#13:345,1485,5255,807	*	*
(4F#X\	.	.	4.cc\]	.	.
4A\	.	.	.	.	.
.	.	.	8b-\	.	.
[4F#\	.	.	8a\L	.	.
.	.	.	8cc\J	.	.
=14	=14	=14	=14	=14	=14
4F#\]	.	.	4.b-\	.	.
4G\	.	.	.	.	.
.	.	.	8a/	.	.
4E\	.	.	8g/L	.	.
.	.	[	8b-/J	.	.
=15	=15	=15	=15	=15	=15
4.F\	.	.	4a/)	3	.
.	.	.	(>4f/	1	.
8G\	.	.	.	.	.
4A\	1	.	4e/	2	.
=16	=16	=16	=16	=16	=16
4.B-\	2	.	4d/	1	.
.	.	.	4g/	4	.
8G\	4	.	.	.	.
8c\L	1	.	4e/	2	.
8B-\J	.	.	.	.	.
=17	=17	=17	=17	=17	=17
8A\L	.	.	4f/)	1	.
8G\J	.	.	.	.	.
8F\)	.	.	(4a/	2	p
8r	.	.	.	.	.
4r	.	.	4b-\	.	.
=18	=18	=18	=18	=18	=18
!	!	!	!	!	!LO:HP:t=cresc. poco a poco
4r	.	.	[2.cc\	.	<
(4E\	3	.	.	.	.
4F\	.	.	.	.	.
=19	=19	=19	=19	=19	=19
[2.G\	.	.	4cc\]	.	.
.	.	.	4b-\	2	.
.	.	.	4cc\	.	.
=20	=20	=20	=20	=20	=20
4G\]	.	.	[2.dd\	.	.
4F\	3	.	.	.	.
4G\	.	.	.	.	.
=21	=21	=21	=21	=21	=21
2A\	.	.	4dd\]	.	.
.	.	.	4cc\	1	.
4G\	3	.	[4ee-X\	3	.
=22	=22	=22	=22	=22	=22
4F#X\	4	.	4.ee-\]	.	.
4A\	2	.	.	.	.
.	.	.	8dd\	1	.
4c\	1	.	8een\L	.	.
.	.	.	8ff#X\J	.	.
=23	=23	=23	=23	=23	=23
!	!	!	!	!	!LO:HP:t=poco dim.
4B-\	2	.	4.gg\	.	>
4G\	4	.	.	.	.
.	.	.	8ffn\	.	.
[4B-\	2	.	8ee\L	.	.
.	.	.	8dd\J	1	.
=24	=24	=24	=24	=24	=24
4B-\]	.	.	2.cc#X\	2	.
8A\L	1	.	.	.	.
8G\	.	.	.	.	.
8F\	.	.	.	.	.
8E\J	.	.	.	.	.
=25	=25	=25	=25	=25	=25
4D\)	.	.	4dd\)	.	.
(4F\	3	.	4r	.	p
4G\	.	.	4r	.	.
!!LO:LB:g=original	!	!	!	!	!
=26	=26	=26	=26	=26	=26
*xywh-#13:339,2280,5262,832	*	*	*xywh-#13:339,2280,5262,832	*	*
[2.A\	.	.	4r	.	.
!	!	!	!	!	!LO:HP:i:t=cresc. sempre
.	.	.	(4c/	.	<
.	.	.	4d/	.	.
=27	=27	=27	=27	=27	=27
4A\]	.	.	[2.e-X/	.	.
4G\	4	.	.	.	.
4A\	.	.	.	.	.
=28	=28	=28	=28	=28	=28
[2.B-\	.	.	4e-/]	.	.
.	.	.	4d/	1	.
.	.	.	4en/	.	.
=29	=29	=29	=29	=29	=29
4B-\]	.	.	2f/	.	.
4A\	3	.	.	.	.
[4c\	.	.	4e-X/	.	.
=30	=30	=30	=30	=30	=30
4.c\]	.	.	4d/	.	.
.	.	.	4f/	2	.
8Bn\	4	.	.	.	.
8c\L	.	.	4a-X/	4	.
8d\J	.	.	.	.	.
=31	=31	=31	=31	=31	=31
4e\	1	.	2g/	3	.
4Bn\	4	.	.	.	.
[4d\	1	.	4f/	2	.
=32	=32	=32	=32	=32	=32
4.d\]	.	.	4e/	1	.
.	.	.	4g/	2	.
8c#X\	4	.	.	.	.
8d\L	.	.	4b-\	4	.
8e\J	.	.	.	.	.
=33	=33	=33	=33	=33	=33
4f\	.	.	2a/	3	.
4c#X\	4	.	.	.	.
[4e\	1	.	4g/	1	.
=34	=34	=34	=34	=34	=34
4.e\]	.	.	4f/	.	.
.	.	.	4a/	3	.
8d\	4	.	.	.	.
8e\L	.	.	4cc\	5	.
8f#X\J	.	.	.	.	.
=35	=35	=35	=35	=35	=35
4g\	.	.	4.b-\	4	.
4G\	5	.	.	.	.
.	.	.	8g/	3	.
[4B-\	3	.	8e/L	2	.
.	.	.	8d/J	1	.
=36	=36	=36	=36	=36	=36
4B-\]	.	.	2.c#X/	2	.
8A\L	1	.	.	.	.
8G\	.	.	.	.	.
8F\	.	.	.	.	.
8E\J	.	.	.	.	.
=37	=37	=37	=37	=37	=37
8D\)	.	.	4d/)	3	.
8r	.	.	.	.	.
(4f\	.	.	4r	.	mf
4e\	.	.	4r	.	.
!!LO:LB:g=original	!	!	!	!	!
=38	=38	=38	=38	=38	=38
*xywh-#13:345,3099,5338,1156	*	*	*xywh-#13:345,3099,5338,1156	*	*
[2.d\	.	.	8r	.	.
.	.	.	(8ff\L	5	.
.	.	.	8ee\	3	.
.	.	.	8dd\	2	.
.	.	.	8cc\	1	.
.	.	.	8b-\J	4	.
=39	=39	=39	=39	=39	=39
4d\]	.	.	8a/L	3	.
.	.	.	8f#X/J	2	.
4e\	1	.	[2g/	3	.
4d\	.	.	.	.	.
=40	=40	=40	=40	=40	=40
2.c#X\	.	.	8g/L]	.	.
.	.	.	8b-/	.	.
.	.	.	8a/	.	.
.	.	.	8g/	.	.
.	.	.	8f/	.	.
.	.	.	8e/J	.	.
=41	=41	=41	=41	=41	=41
4d\)	.	.	8f/)	.	.
.	.	.	8r	.	.
4r	.	.	(4dd\	.	p
4r	.	.	4cc\	.	.
=42	=42	=42	=42	=42	=42
8r	.	.	[2.b-\	.	.
(8d\L	1	.	.	.	.
8c\	.	.	.	.	.
8B-\	.	.	.	.	.
8A\	1	.	.	.	.
8G\J	.	.	.	.	.
=43	=43	=43	=43	=43	=43
8F\L	.	.	4b-\]	.	.
8D\J	.	.	.	.	.
2E\)	.	<	4cc\	.	.
.	.	.	4b-\	.	.
=44	=44	=44	=44	=44	=44
8r	.	.	2a/	2	.
(8F#X\L	5	.	.	.	.
8G\	.	.	.	.	.
8A\	.	.	.	.	.
8B-\	.	.	[4d/	1	.
8c\J	.	.	.	.	.
=45	=45	=45	=45	=45	=45
4.B-\	.	.	4d/]	.	.
.	.	.	4g/	.	.
8A\	.	.	.	.	.
[4G\	.	[[	4b-/	.	.
=46	=46	=46	=46	=46	=46
4.G\]	.	.	4a/)	.	.
.	.	.	(>4A/	.	.
8F\	.	.	.	.	.
8B-\L	.	.	[4d/	.	.
8A\J	.	.	.	.	.
=47	=47	=47	=47	=47	=47
!	!	!	!LO:TX:b:i:t=riten.un poco	!	!
8G\L	.	.	4d/]	.	.
8F\	.	.	.	.	.
8E\	.	>	(2c#Xt/	.	.
8F\	.	.	.	.	.
8G\	.	.	.	.	.
8A\J	.	.	.	.	.
.	.	.	16qqBn/LL	.	.
.	.	.	16qqc#/JJ	.	.
=48	=48	=48	=48	=48	=48
8F\L	.	]	2.d/))	.	.
8E\J	.	.	.	.	.
2D\)	.	.	.	.	.
==	==	==	==	==	==
*-	*-	*-	*-	*-	*-
!!!system-decoration: {(s1,s2)}
!!!RDF**kern: > = above
!!!RDF**kern: < = below
!!!ENC: Anastazja Marusiak
!!!END: 2022-03-11
!!!ENC: Natalia Wrzos
!!!END: 2022-03-15
!!!IIIF: https://polona.pl/iiif/item/ODE1NjEwMzc/manifest.json
!!!ENC-iiif: Jan Barakat
!!!END-iiif: 2022-08-31
!!!YEC: Copyright 2022 Narodowy Instytut Fryderyka Chopina (https://polishscores.org)
!!!YEM: License CC-BY-4.0 (https://creativecommons.org/licenses/by/4.0)
